X:122
T: Der Emmenthaler Kuehreigen
N: A0484B
O: Europa, Mitteleuropa, Deutschland
N: Mitgetheilt in Bueschings Volksliedern 1807. Melodieheft S. 30.
R: Romanze, Ballade, Lied
M: 4/4
L: 1/8
K: E
ed | e2=dcdcBA | B2E2z2
ed | e2=dcdcA2 | B4z2
BA | G2E2AGAB | =c2A2z2
ed | e2=dcdcA2 | A4Ez

